sirius_gui/src/main/resources/icons/circular-icons-svg/c-clipboard.svg

<?xml version="1.0" encoding="UTF-8" standalone="no"?>
<svg
   width="64px"
   height="64px"
   viewBox="0 0 64 64"
   version="1.1"
   id="svg12096"
   sodipodi:docname="c-clipboard.svg"
   inkscape:version="1.2 (dc2aeda, 2022-05-15)"
   xmlns:inkscape="http://www.inkscape.org/namespaces/inkscape"
   xmlns:sodipodi="http://sodipodi.sourceforge.net/DTD/sodipodi-0.dtd"
   xmlns="http://www.w3.org/2000/svg"
   xmlns:svg="http://www.w3.org/2000/svg"
   xmlns:sketch="http://www.bohemiancoding.com/sketch/ns">
  <sodipodi:namedview
     id="namedview12098"
     pagecolor="#ffffff"
     bordercolor="#000000"
     borderopacity="0.25"
     inkscape:showpageshadow="2"
     inkscape:pageopacity="0.0"
     inkscape:pagecheckerboard="0"
     inkscape:deskcolor="#d1d1d1"
     showgrid="false"
     inkscape:zoom="3.6875"
     inkscape:cx="0.40677966"
     inkscape:cy="32"
     inkscape:window-width="1309"
     inkscape:window-height="430"
     inkscape:window-x="0"
     inkscape:window-y="39"
     inkscape:window-maximized="0"
     inkscape:current-layer="svg12096" />
  <!-- Generator: Sketch 3.4 (15575) - http://www.bohemiancoding.com/sketch -->
  <title
     id="title12078">c-clipboard</title>
  <desc
     id="desc12080">Created with Sketch.</desc>
  <defs
     id="defs12082" />
  <path
     d="M 32,64 C 49.673112,64 64,49.673112 64,32 64,14.326888 49.673112,0 32,0 14.326888,0 0,14.326888 0,32 0,49.673112 14.326888,64 32,64 Z"
     id="Oval-1"
     fill="#1191bb"
     sketch:type="MSShapeGroup"
     style="fill-rule:evenodd;stroke:none;stroke-width:1;fill:#4da6bf;fill-opacity:1" />
  <path
     d="m 24,13 h 16 v 4 H 24 Z m 5,-4 h 6 v 4 h -6 z"
     id="Rectangle-146"
     fill="#ffffff"
     sketch:type="MSShapeGroup"
     style="fill-rule:evenodd;stroke:none;stroke-width:1" />
  <path
     d="m 42,17 v -2 h 4 V 49 H 18 V 15 h 4 v 2 H 20 V 47 H 44 V 17 Z"
     id="Rectangle-143"
     fill="#ffffff"
     sketch:type="MSShapeGroup"
     style="fill-rule:evenodd;stroke:none;stroke-width:1" />
  <rect
     id="Rectangle-148"
     fill="#ffffff"
     sketch:type="MSShapeGroup"
     x="24"
     y="22"
     width="16"
     height="2"
     style="fill-rule:evenodd;stroke:none;stroke-width:1" />
  <rect
     id="rect12088"
     fill="#ffffff"
     sketch:type="MSShapeGroup"
     x="24"
     y="28"
     width="14"
     height="2"
     style="fill-rule:evenodd;stroke:none;stroke-width:1" />
  <rect
     id="rect12090"
     fill="#ffffff"
     sketch:type="MSShapeGroup"
     x="24"
     y="34"
     width="16"
     height="2"
     style="fill-rule:evenodd;stroke:none;stroke-width:1" />
  <rect
     id="rect12092"
     fill="#ffffff"
     sketch:type="MSShapeGroup"
     x="24"
     y="40"
     width="14"
     height="2"
     style="fill-rule:evenodd;stroke:none;stroke-width:1" />
</svg>

<?xml version="1.0" encoding="UTF-8"?>
<svg id="svg12096" width="64px" height="64px" version="1.1" viewBox="0 0 64 64" xmlns="http://www.w3.org/2000/svg">
 <!-- Generator: Sketch 3.4 (15575) - http://www.bohemiancoding.com/sketch -->
 <title id="title12078">c-clipboard</title>
 <desc id="desc12080">Created with Sketch.</desc>
 <path id="Oval-1" d="m32 64c17.673 0 32-14.327 32-32s-14.327-32-32-32-32 14.327-32 32 14.327 32 32 32z" fill="#4da6bf" fill-rule="evenodd"/>
 <path id="Rectangle-146" d="m24 13h16v4h-16zm5-4h6v4h-6z" fill="#fff" fill-rule="evenodd"/>
 <path id="Rectangle-143" d="m42 17v-2h4v34h-28v-34h4v2h-2v30h24v-30z" fill="#fff" fill-rule="evenodd"/>
 <rect id="Rectangle-148" x="24" y="22" width="16" height="2" fill="#fff" fill-rule="evenodd"/>
 <rect id="rect12088" x="24" y="28" width="14" height="2" fill="#fff" fill-rule="evenodd"/>
 <rect id="rect12090" x="24" y="34" width="16" height="2" fill="#fff" fill-rule="evenodd"/>
 <rect id="rect12092" x="24" y="40" width="14" height="2" fill="#fff" fill-rule="evenodd"/>
</svg>
